app/img/icons/menu-icon.svg

<?xml version="1.0" encoding="UTF-8"?>
<svg width="37px" height="26px" viewBox="0 0 37 26" version="1.1" xmlns="http://www.w3.org/2000/svg" xmlns:xlink="http://www.w3.org/1999/xlink">
    <!-- Generator: Sketch 49.3 (51167) - http://www.bohemiancoding.com/sketch -->
    <title>menu-icon</title>
    <desc>Created with Sketch.</desc>
    <defs></defs>
    <g id="Page-1" stroke="none" stroke-width="1" fill="none" fill-rule="evenodd">
        <g id="menu-icon" fill="#FFFFFF" fill-rule="nonzero">
            <path d="M1.39622642,3.34285714 L35.6037736,3.34285714 C36.3744906,3.34285714 37,2.67725714 37,1.85714286 C37,1.03702857 36.3744906,0.371428571 35.6037736,0.371428571 L1.39622642,0.371428571 C0.625509434,0.371428571 0,1.03702857 0,1.85714286 C0,2.67725714 0.625509434,3.34285714 1.39622642,3.34285714 Z" id="Shape"></path>
            <path d="M1.39622642,14.4857143 L35.6037736,14.4857143 C36.3744906,14.4857143 37,13.8201143 37,13 C37,12.1798857 36.3744906,11.5142857 35.6037736,11.5142857 L1.39622642,11.5142857 C0.625509434,11.5142857 0,12.1798857 0,13 C0,13.8201143 0.625509434,14.4857143 1.39622642,14.4857143 Z" id="Shape"></path>
            <path d="M1.39622642,25.6285714 L35.6037736,25.6285714 C36.3744906,25.6285714 37,24.9629714 37,24.1428571 C37,23.3227429 36.3744906,22.6571429 35.6037736,22.6571429 L1.39622642,22.6571429 C0.625509434,22.6571429 0,23.3227429 0,24.1428571 C0,24.9629714 0.625509434,25.6285714 1.39622642,25.6285714 Z" id="Shape"></path>
        </g>
    </g>
</svg>

<svg width="37" height="26" xmlns="http://www.w3.org/2000/svg"><g fill="#FFF" fill-rule="nonzero"><path d="M1.396 3.343h34.208c.77 0 1.396-.666 1.396-1.486S36.374.371 35.604.371H1.396C.626.371 0 1.037 0 1.857s.626 1.486 1.396 1.486zM1.396 14.486h34.208c.77 0 1.396-.666 1.396-1.486s-.626-1.486-1.396-1.486H1.396C.626 11.514 0 12.18 0 13s.626 1.486 1.396 1.486zM1.396 25.629h34.208c.77 0 1.396-.666 1.396-1.486s-.626-1.486-1.396-1.486H1.396c-.77 0-1.396.666-1.396 1.486s.626 1.486 1.396 1.486z"/></g></svg>
